X: 22
T:Campbells Are Coming,The. HS.22
M:6/8
Q:120
S:Henry Stables MS,Cumbria,late19thC
R:jig
O:Walthwaite,nr.Ambleside.
A:England
Z:vmp.Chris Partington
K:G
GBe dBG|B2BB2A|GBe dBG|A2AA2G|!
GBe dBG|g2ab2a|gfg e<ge|d2BB2d::!
g2g gab|d2dd2d|g2g gab|e2ee2d|!
def gfe|def gab|gfg e<ge|d2B"DC"B2G||
